X:1
T:Cum luce prima
T:Cum luce prima
T:André Vierendeels
C:André Vierendeels
%%score [ 1 2 3 4 ]
L:1/8
Q:1/4=120
M:3/2
K:D
V:1 treble nm="Soprano" snm="S"
V:2 treble nm="Alto" snm="A"
V:3 treble-8 nm="Tenor" snm="T"
V:4 bass nm="Bass" snm="B"
V:1
 z8 d4 | d8 d4 | c8 c4 | d8 B4 | !fermata!A12 | A4 B4 c4 | d8 c4 | B4 A4 G4 | !fermata!F8 F4 | %9
w: Cum|lu- ce|pri- ma|Sa- ba-|thi|or- tus- que|so- lis|ro- * sci-|di gra-|
 F8 F4 | A8 A4 | G4 E8 | !fermata!D8 A4 | B8 A4 | A8 F4 | G4 E8 | !fermata!D8 E4 | F8 G4 | A8 D4 | %19
w: to fra-|gran- tes|un- gui-|ne tres|af- fu-|e- re|fe- mi-|nae. Al-|le- lu-|ia, al-|
 E4 E8 | !fermata!D12 |] %21
w: le- lu-|ia.|
V:2
 z8 F4 | G2 A2 B4 A4 | A2 G2 F2 E2 G4- | G4 F4 G4 | !fermata!F12 | E4 G4 E4 | F2 G2 A2 B2 A4 | %7
w: Cum|lu _ _ ce|pri- * * * ma-|_ Sa- ba-|thi|or- tus- que|so- * * * lis|
 F4 E4 E4 | !fermata!D8 D4 | D8 D4 | E2 F2 G2 F2 E4 | E4 D4 C4 | !fermata!D8 F4 | F8 E4 | %14
w: ro- * sci-|di gra-|to fra-|gran _ _ _ tes|un- gui- *|ne tres|af- fu-|
 F2 D2 E2 F2 D4 | E4 D4 C4 | !fermata!A,8 C4 | D2 E2 D2 C2 D4 | D4 C4 D4 | B,4 D4 C4 | %20
w: e- * * * re|fe- mi- *|nae. Al-|le- * * * lu-|ia, al- *|le- lu- *|
 !fermata!A,12 |] %21
w: ia.|
V:3
 z8 A4 | B4 d8 | e4 d2 c2 e4 | A2 B2 =c2 d4 c2 | !fermata!A12 | c4 d4 A4 | A2 B2 c2 d2 e4 | %7
w: Cum|lu- ce|pri- * * ma|Sa- * * * ba-|thi|or- tus- que|so- * * * lis|
 d4 e2 d2 c2 B2 | !fermata!A8 A4 | B8 A4 | c2 d2 e2 d2 A4 | B4 A8 | !fermata!A8 A4 | %13
w: ro- * * * *|di gra|to fra-|gran- * * * tes|un- gui-|ne tres|
 B2 A2 G2 F2 G4 | A2 F2 G2 A2 B4 | B4 A8 | !fermata!F8 A4 | d2 c2 B2 A2 B4 | A4 E4 G4- | G4 A8 | %20
w: af- * * * fu-|e- * * * re-|fe- mi-|nae. Al|le- * * * lu-|ia, al- le-|* lu-|
 !fermata!F12 |] %21
w: ia.|
V:4
 z8 D,4 | G,8 F,4 | A,8 A,4 | D,8 G,4 | !fermata!D,12 | A,4 G,4 A,4 | D,8 A,,4 | B,,4 C,4 A,,4 | %8
w: Cum|lu- ce|pri- ma|Sa- ba-|thi|or- tus- que|so- lis|ro- * sci-|
 !fermata!D,8 D,4 | B,,8 D,4 | A,,8 C,4 | E,4 A,,8 | !fermata!D,8 D,4 | B,,8 C,4 | D,8 B,,4 | %15
w: di gra-|to fra|gran- tes|un- gui-|ne tres|af- fu-|e- re|
 E,4 A,,8 | !fermata!D,8 A,,4 | D,8 B,,4 | A,,8 B,,4 | E,4 A,,8 | !fermata!D,12 |] %21
w: fe- mi-|nae. Al-|le- lu-|ia, al-|le- lu-|ia.|

